public/avatar/body/166.svg

<svg xmlns:xlink="http://www.w3.org/1999/xlink" height="82" width="84.85" xmlns="http://www.w3.org/2000/svg"><g transform="translate(37.4 42.25)"><use height="38" transform="translate(-11.95 -17.45)" width="32.05" xlink:href="#a"/><use height="38.95" transform="translate(-12.45 -17.95)" width="33.05" xlink:href="#b"/><use height="23.6" transform="translate(-13.95 2.2)" width="35.8" xlink:href="#c"/><use height="11.25" transform="translate(5.9 6.3)" width="11.05" xlink:href="#d"/><use height="11.25" transform="matrix(-1 0 0 1 2.5 6.35)" width="11.05" xlink:href="#e"/><use height="11.25" transform="matrix(-1 0 0 1 2.5 6.35)" width="11.05" xlink:href="#d"/></g><defs><use height="38" width="32.05" xlink:href="#f" id="a"/><use height="38.95" width="33.05" xlink:href="#g" id="b"/><use height="11.25" width="11.05" xlink:href="#h" id="d"/><use height="11.25" width="11.05" xlink:href="#i" id="e"/><g id="c"><path d="m2.15 3.25.3-.05M4.7 9.15l-.05 1.15-.25 1.15" fill="none" stroke="#454545" stroke-linecap="round" stroke-linejoin="round" stroke-width=".95"/><path d="m6.95 17.2 5.7-1.2q1.9-.55 3.7-1.45 1.65-.9 2.6-2.05.4-.2.6.3.8 2.15 2.3 3.95-.55 1.85-2.4 2.7l-1.35.5q-.35 1.05-1 1.55-1.65 1.3-3.55 1.4-1.45 1.5-3.6 1.8-1.45.3-2.75 0-.7.65-1.5.8-2.65.7-5.1-.35-2.05.55-3.9-.3-1.1-.45-1.8-1.25-2.65-.05-4.3-2-1.35-.15-2.1-1.1l-.45-.8q-1.75-.45-2-2.25v-.05l.15-.3 2.8-3.85 5.45 2.25Q-2.5 16.7.7 17.2q3.15.4 6.25 0" fill="#58130c" fill-rule="evenodd" transform="translate(13.95 -2.2)"/><path d="m20.75 16.75-.25.4q-1.1 1.65-3.15 2.05l-.25.45q-1.5 1.95-4 2.3-.05.5-.8.9-2.6 1.45-5.3.85l-.55.6-2.6.4-2.1-.35-1.15-.2-.85.15q-2.65.15-4.45-1.75l-1-.2-1.55-.35q-1.2-.35-1.6-1.25-1.35.15-2.2-1.05l-.05-.65q-1.3-.15-1.8-1.55l2.1-3 2.65 1.25Q-4 17.8.8 18.45q3.05.3 6.4-.05 4.2-.7 8.3-2.35 1.9-.75 3.45-2.5.6 1.8 1.8 3.2" fill="#e23725" fill-rule="evenodd" transform="translate(13.95 -2.2)"/><path d="m-5.05 22.6-1.75-.4 2.45-2.9q.05 1.7-.7 3.3m-2.85-3.9q-.05.95-.65 1.6l-.35.45-1.65-.5q1.8-.7 2.7-2.2l-.05.65m-4.5-.35 1.95-1.05-.15.5-.3.7-.35.5-1.15-.65M6.4 24.1l-1.65.55-1.3.05 1.15-6.15 3.85-.35q5.95-.8 10.5-4.65l1.8 3.2q-.5 1.25-1.7 1.75l-2.3-1.3.85 1.9-.4.65q-.7 1.1-1.8 1.4l-3.2-1.9.75 2.9q-1.3 1.4-3.4 1.55-.7-1.95-2.2-3.3l-.45 3.45-.5.25m-6-3.75L.2 24.2l-1.95-.1L.4 20.35" fill="#a8291c" fill-rule="evenodd" transform="translate(13.95 -2.2)"/><path d="m20.45 8.65-.3 2.05-.45 1.45.45 1.15.1.3-.1.3q-7.2 6.15-18.35 5.5-9.95-.6-14-5l.8-2.8-.7-2.1q-.4-1-.4-2.8l.05-.45-.05-.3-.45-.55-.1-.8.45-1.7q.25-.35.6-.15L4.15 9.5q.6-.05 6.25-2.65 5.9-2.7 9.25-4.6L20 2.2q1.25.4 1.35 2.45l-.05.4-.1.25-.7.5v1.7l-.05 1.15" fill="#61170e" fill-rule="evenodd" transform="translate(13.95 -2.2)"/><path d="m20.15 6-1.9.9.9 3.95q.25 1.05.85 2.05l-1.8 1.4-2.95 1.7q-1.5.8-3.15 1.25l-4.6 1.2-3.8.2-7.15-.8q-4-.8-7.3-3.15l.75-7.25-2.2-1.9.45-1.75.35.15 1.65.65 2.45 1.25 4.9 2.05 6.75 2.85.35-.15 1.2-.5L9 8.7l5.5-2.8q2.7-1.25 5.35-2.85l.4.3Q21 4.7 20.15 6" fill="#fff" fill-rule="evenodd" transform="translate(13.95 -2.2)"/><path d="m5.3 11.75-1.15.9q.7 2.25.7 4.45v.85l-1-5.35.95-1.1.5.25" fill="#fff645" fill-rule="evenodd" transform="translate(13.95 -2.2)"/><path d="m5.3 11.75-.5-.25-.95 1.1 1 5.35v-.85q0-2.2-.7-4.45l1.15-.9M3.8 16l-.15-4.6-.85-.1 1.45-.55 1.3.9.25 1-.8.15-.55.75.45 1.35.15 3.15-2 .1-.65-.8 1.6.1L3.8 16" fill="#fd8632" fill-rule="evenodd" transform="translate(13.95 -2.2)"/><path d="m2.8 11.3.85.1.15 4.6-.15-.85-.85-3.85m.25 6.85 2-.1-.15-3.15.8 2.6-1.1 1.05-1.55-.4" fill="#61170e" fill-rule="evenodd" transform="translate(13.95 -2.2)"/></g><g id="h" fill-rule="evenodd"><path d="M1.2-1.95Q1-1.2.3-.8l-.6.65L2.5-.5Q1.7 1.45-.45 1.55L1 2.3l-4.1 1.05.9 1.3Q-3.95 4.5-4.6 2.8q.15-.9 1-1.45Q-.75-.4 1.3-2.55l-.1.6" fill="#fff645" transform="translate(5.55 5.5)"/><path d="m-5.5 2.35.1-.85 3.3-1.8q3.3-1.65 4.5-5.05Q3.65-2.15.8-.8l.7.2Q3-.55 3.9-1.65l.35-.4 1.1-2.1-.1 1.25Q4.9-.4 2.85.85l-.2.15-.2.05-.95.5 2.3.05h.05l-.05.1-.6.35Q.8 3.8-2.05 3.15l-.5.55q1.5 1.65 3.2.5l-.6.5Q-1.7 6-3.7 5q-1.1-.75-1.6-2l-.2-.65m6.7-4.3.1-.6Q-.75-.4-3.6 1.35q-.85.55-1 1.45.65 1.7 2.4 1.85l-.9-1.3L1 2.3l-1.45-.75Q1.7 1.45 2.5-.5l-2.8.35.6-.65q.7-.4.9-1.15" fill="#fd8632" transform="translate(5.55 5.5)"/><path d="M3.9-1.65Q3-.55 1.5-.6L.8-.8q2.85-1.35 1.6-4.55Q1.2-1.95-2.1-.3l-3.3 1.8-.1.85-.05-.9 4.65-2.8q2.5-1.4 3.25-4.15l.35.25q.55 1.25.25 2.4-.4 1.45-1.5 1.95l1-.15 1.45-.6M-3.7 5q2 1 3.75-.3l.6-.5q-1.7 1.15-3.2-.5l.5-.55Q.8 3.8 3.2 2.05l.6-.35Q2.75 3.6-.05 3.55L-2 3.4l-.2.5q.95 1.15 2.35.45l.6-.25Q-.2 6.45-2.9 5.5l-.8-.5m7.5-3.4-2.3-.05 1.7-.05.8-.35-.2.45M2.85.85Q4.9-.4 5.25-2.9l.1-1.25-1.1 2.1 1.1-2.25Q6.1-1.25 3.2.65l-.35.2" fill="#61170e" transform="translate(5.55 5.5)"/></g><g id="i" fill-rule="evenodd"><path d="M3.9-1.65Q3-.55 1.5-.6L.8-.8q2.85-1.35 1.6-4.55Q1.2-1.95-2.1-.3l-3.3 1.8-.1.85-.05-.9 4.65-2.8q2.5-1.4 3.25-4.15l.35.25q.55 1.25.25 2.4-.4 1.45-1.5 1.95l1-.15 1.45-.6M-3.7 5q2 1 3.75-.3l.6-.5q-1.7 1.15-3.2-.5l.5-.55Q.8 3.8 3.2 2.05l.6-.35Q2.75 3.6-.05 3.55L-2 3.4l-.2.5q.95 1.15 2.35.45l.6-.25Q-.2 6.45-2.9 5.5l-.8-.5m7.5-3.4-2.3-.05 1.7-.05.8-.35-.2.45M2.85.85Q4.9-.4 5.25-2.9l.1-1.25-1.1 2.1 1.1-2.25Q6.1-1.25 3.2.65l-.35.2" fill="#03102a" transform="translate(5.55 5.5)"/><path d="m1.2-1.95.1-.6Q-.75-.4-3.6 1.35q-.85.55-1 1.45.65 1.7 2.4 1.85l-.9-1.3L1 2.3l-1.45-.75Q1.7 1.45 2.5-.5l-2.8.35.6-.65q.7-.4.9-1.15m-6.7 4.3.1-.85 3.3-1.8q3.3-1.65 4.5-5.05Q3.65-2.15.8-.8l.7.2Q3-.55 3.9-1.65l.35-.4 1.1-2.1-.1 1.25Q4.9-.4 2.85.85l-.2.15-.2.05-.95.5 2.3.05h.05l-.05.1-.6.35Q.8 3.8-2.05 3.15l-.5.55q1.5 1.65 3.2.5l-.6.5Q-1.7 6-3.7 5q-1.1-.75-1.6-2l-.2-.65" fill="#d31fff" transform="translate(5.55 5.5)"/><path d="M1.2-1.95Q1-1.2.3-.8l-.6.65L2.5-.5Q1.7 1.45-.45 1.55L1 2.3l-4.1 1.05.9 1.3Q-3.95 4.5-4.6 2.8q.15-.9 1-1.45Q-.75-.4 1.3-2.55l-.1.6" fill="#8af1ff" transform="translate(5.55 5.5)"/></g><path d="M27.35 7.4q2.15 4.15 3.55 8.75 1.45 4.7 1.15 9.5-.35 4.95-4.2 8.1-3.8 3.2-8.75 4.05l-2.6.2q-3.6 0-7.05-1.15-4.65-1.6-7.1-5.5Q-.2 27.4.05 23q.2-4.4 2-9.3Q3.85 8.75 7 5.05 10.1 1.3 14.7.1l1.8-.1q1.9.05 3.7.8 4.75 2.05 7.15 6.6" fill="#ffc192" fill-rule="evenodd" transform="translate(-.05)" id="f"/><path d="M27.35 7.4Q24.95 2.85 20.2.8 17.55-.3 14.7.1 10.1 1.3 7 5.05q-3.15 3.7-4.95 8.65-1.8 4.9-2 9.3-.25 4.4 2.3 8.35 2.45 3.9 7.1 5.5 4.65 1.55 9.65.95 4.95-.85 8.75-4.05 3.85-3.15 4.2-8.1.3-4.8-1.15-9.5-1.4-4.6-3.55-8.75Z" fill="none" stroke="#333" stroke-linecap="round" stroke-linejoin="round" transform="translate(.45 .5)" id="g"/></defs></svg>

<?xml version="1.0" encoding="UTF-8" standalone="no"?>
<svg xmlns:xlink="http://www.w3.org/1999/xlink" height="82.0px" width="84.85px" xmlns="http://www.w3.org/2000/svg">
  <g transform="matrix(1.0, 0.0, 0.0, 1.0, 37.4, 42.25)">
    <use height="38.0" transform="matrix(1.0, 0.0, 0.0, 1.0, -11.95, -17.45)" width="32.05" xlink:href="#sprite0"/>
    <use height="38.95" transform="matrix(1.0, 0.0, 0.0, 1.0, -12.45, -17.95)" width="33.05" xlink:href="#sprite1"/>
    <use height="23.6" transform="matrix(1.0, 0.0, 0.0, 1.0, -13.95, 2.2)" width="35.8" xlink:href="#shape2"/>
    <use height="11.25" transform="matrix(1.0, 0.0, 0.0, 1.0, 5.9, 6.3)" width="11.05" xlink:href="#sprite2"/>
    <use height="11.25" transform="matrix(-1.0, 0.0, 0.0, 1.0, 2.5, 6.35)" width="11.05" xlink:href="#sprite3"/>
    <use height="11.25" transform="matrix(-1.0, 0.0, 0.0, 1.0, 2.5, 6.35)" width="11.05" xlink:href="#sprite2"/>
  </g>
  <defs>
    <g id="sprite0" transform="matrix(1.0, 0.0, 0.0, 1.0, -0.05, 0.0)">
      <use height="38.0" transform="matrix(1.0, 0.0, 0.0, 1.0, 0.05, 0.0)" width="32.05" xlink:href="#shape0"/>
    </g>
    <g id="shape0" transform="matrix(1.0, 0.0, 0.0, 1.0, -0.05, 0.0)">
      <path d="M27.35 7.4 Q29.5 11.55 30.9 16.15 32.35 20.85 32.05 25.65 31.7 30.6 27.85 33.75 24.05 36.95 19.1 37.8 L16.5 38.0 Q12.9 38.0 9.45 36.85 4.8 35.25 2.35 31.35 -0.2 27.4 0.05 23.0 0.25 18.6 2.05 13.7 3.85 8.75 7.0 5.05 10.1 1.3 14.7 0.1 L16.5 0.0 Q18.4 0.05 20.2 0.8 24.95 2.85 27.35 7.4" fill="#ffc192" fill-rule="evenodd" stroke="none"/>
    </g>
    <g id="sprite1" transform="matrix(1.0, 0.0, 0.0, 1.0, 0.45, 0.5)">
      <use height="38.95" transform="matrix(1.0, 0.0, 0.0, 1.0, -0.45, -0.5)" width="33.05" xlink:href="#shape1"/>
    </g>
    <g id="shape1" transform="matrix(1.0, 0.0, 0.0, 1.0, 0.45, 0.5)">
      <path d="M27.35 7.4 Q24.95 2.85 20.2 0.8 17.55 -0.3 14.7 0.1 10.1 1.3 7.0 5.05 3.85 8.75 2.05 13.7 0.25 18.6 0.05 23.0 -0.2 27.4 2.35 31.35 4.8 35.25 9.45 36.85 14.1 38.4 19.1 37.8 24.05 36.95 27.85 33.75 31.7 30.6 32.05 25.65 32.35 20.85 30.9 16.15 29.5 11.55 27.35 7.4 Z" fill="none" stroke="#333333" stroke-linecap="round" stroke-linejoin="round" stroke-width="1.0"/>
    </g>
    <g id="shape2" transform="matrix(1.0, 0.0, 0.0, 1.0, 13.95, -2.2)">
      <path d="M-11.8 5.45 L-11.5 5.4" fill="none" stroke="#454545" stroke-linecap="round" stroke-linejoin="round" stroke-width="0.9500000000000001"/>
      <path d="M-9.25 11.35 L-9.3 12.5 -9.55 13.65" fill="none" stroke="#454545" stroke-linecap="round" stroke-linejoin="round" stroke-width="0.9500000000000001"/>
      <path d="M6.95 17.2 L12.65 16.0 Q14.55 15.45 16.35 14.55 18.0 13.65 18.95 12.5 19.35 12.3 19.55 12.8 20.35 14.95 21.85 16.75 21.3 18.6 19.45 19.45 L18.1 19.95 Q17.75 21.0 17.1 21.5 15.45 22.8 13.55 22.9 12.1 24.4 9.95 24.7 8.5 25.0 7.2 24.7 6.5 25.35 5.7 25.5 3.05 26.2 0.6 25.15 -1.45 25.7 -3.3 24.85 -4.4 24.4 -5.1 23.6 -7.75 23.55 -9.4 21.6 -10.75 21.45 -11.5 20.5 L-11.95 19.7 Q-13.7 19.25 -13.95 17.45 L-13.95 17.4 -13.8 17.1 -11.0 13.25 -5.55 15.5 Q-2.5 16.7 0.7 17.2 3.85 17.6 6.95 17.2" fill="#58130c" fill-rule="evenodd" stroke="none"/>
      <path d="M20.75 16.75 L20.5 17.15 Q19.4 18.8 17.35 19.2 L17.1 19.65 Q15.6 21.6 13.1 21.95 13.05 22.45 12.3 22.85 9.7 24.3 7.0 23.7 L6.45 24.3 3.85 24.7 1.75 24.35 0.6 24.15 -0.25 24.3 Q-2.9 24.45 -4.7 22.55 L-5.7 22.35 -7.25 22.0 Q-8.45 21.65 -8.85 20.75 -10.2 20.9 -11.05 19.7 L-11.1 19.05 Q-12.4 18.9 -12.9 17.5 L-10.8 14.5 -8.15 15.75 Q-4.0 17.8 0.8 18.45 3.85 18.75 7.2 18.4 11.4 17.7 15.5 16.05 17.4 15.3 18.95 13.55 19.55 15.35 20.75 16.75" fill="#e23725" fill-rule="evenodd" stroke="none"/>
      <path d="M-5.05 22.6 L-6.8 22.2 -4.35 19.3 Q-4.3 21.0 -5.05 22.6 M-7.9 18.7 Q-7.95 19.65 -8.55 20.3 L-8.9 20.75 -10.55 20.25 Q-8.75 19.55 -7.85 18.05 L-7.9 18.7 M-12.4 18.35 L-10.45 17.3 -10.6 17.8 -10.9 18.5 -11.25 19.0 -12.4 18.35 M6.4 24.1 L4.75 24.65 3.45 24.7 4.6 18.55 8.45 18.2 Q14.4 17.4 18.95 13.55 L20.75 16.75 Q20.25 18.0 19.05 18.5 L16.75 17.2 17.6 19.1 17.2 19.75 Q16.5 20.85 15.4 21.15 L12.2 19.25 12.95 22.15 Q11.65 23.55 9.55 23.7 8.85 21.75 7.35 20.4 L6.9 23.85 6.4 24.1 M0.4 20.35 L0.2 24.2 -1.75 24.1 0.4 20.35" fill="#a8291c" fill-rule="evenodd" stroke="none"/>
      <path d="M20.45 8.65 L20.15 10.7 19.7 12.15 20.15 13.3 20.25 13.6 20.15 13.9 Q12.95 20.05 1.8 19.4 -8.15 18.8 -12.2 14.4 L-11.4 11.6 -12.1 9.5 Q-12.5 8.5 -12.5 6.7 L-12.45 6.25 -12.5 5.95 -12.95 5.4 -13.05 4.6 -12.6 2.9 Q-12.35 2.55 -12.0 2.75 L4.15 9.5 Q4.75 9.45 10.4 6.85 16.3 4.15 19.65 2.25 L20.0 2.2 Q21.25 2.6 21.35 4.65 L21.3 5.05 21.2 5.3 20.5 5.8 20.5 7.5 20.45 8.65" fill="#61170e" fill-rule="evenodd" stroke="none"/>
      <path d="M20.15 6.0 L18.25 6.9 19.15 10.85 Q19.4 11.9 20.0 12.9 L18.2 14.3 15.25 16.0 Q13.75 16.8 12.1 17.25 L7.5 18.45 3.7 18.65 -3.45 17.85 Q-7.45 17.05 -10.75 14.7 L-10.0 7.45 -12.2 5.55 -11.75 3.8 -11.4 3.95 -9.75 4.6 -7.3 5.85 -2.4 7.9 4.35 10.75 4.7 10.6 5.9 10.1 9.0 8.7 14.5 5.9 Q17.2 4.65 19.85 3.05 L20.25 3.35 Q21.0 4.7 20.15 6.0" fill="#ffffff" fill-rule="evenodd" stroke="none"/>
      <path d="M5.3 11.75 L4.15 12.65 Q4.85 14.9 4.85 17.1 L4.85 17.95 3.85 12.6 4.8 11.5 5.3 11.75" fill="#fff645" fill-rule="evenodd" stroke="none"/>
      <path d="M5.3 11.75 L4.8 11.5 3.85 12.6 4.85 17.95 4.85 17.1 Q4.85 14.9 4.15 12.65 L5.3 11.75 M3.8 16.0 L3.65 11.4 2.8 11.3 4.25 10.75 5.55 11.65 5.8 12.65 5.0 12.8 4.45 13.55 4.9 14.9 5.05 18.05 3.05 18.15 2.4 17.35 4.0 17.45 3.8 16.0" fill="#fd8632" fill-rule="evenodd" stroke="none"/>
      <path d="M2.8 11.3 L3.65 11.4 3.8 16.0 3.65 15.15 2.8 11.3 M3.05 18.15 L5.05 18.05 4.9 14.9 5.7 17.5 4.6 18.55 3.05 18.15" fill="#61170e" fill-rule="evenodd" stroke="none"/>
    </g>
    <g id="sprite2" transform="matrix(1.0, 0.0, 0.0, 1.0, 5.55, 5.5)">
      <use height="11.25" transform="matrix(1.0, 0.0, 0.0, 1.0, -5.55, -5.5)" width="11.05" xlink:href="#shape3"/>
    </g>
    <g id="shape3" transform="matrix(1.0, 0.0, 0.0, 1.0, 5.55, 5.5)">
      <path d="M1.2 -1.95 Q1.0 -1.2 0.3 -0.8 L-0.3 -0.15 2.5 -0.5 Q1.7 1.45 -0.45 1.55 L1.0 2.3 -3.1 3.35 -2.2 4.65 Q-3.95 4.5 -4.6 2.8 -4.45 1.9 -3.6 1.35 -0.75 -0.4 1.3 -2.55 L1.2 -1.95" fill="#fff645" fill-rule="evenodd" stroke="none"/>
      <path d="M-5.5 2.35 L-5.4 1.5 -2.1 -0.3 Q1.2 -1.95 2.4 -5.35 3.65 -2.15 0.8 -0.8 L1.5 -0.6 Q3.0 -0.55 3.9 -1.65 L4.25 -2.05 5.35 -4.15 5.25 -2.9 Q4.9 -0.4 2.85 0.85 L2.65 1.0 2.45 1.05 1.5 1.55 3.8 1.6 3.85 1.6 3.8 1.7 3.2 2.05 Q0.8 3.8 -2.05 3.15 L-2.55 3.7 Q-1.05 5.35 0.65 4.2 L0.05 4.7 Q-1.7 6.0 -3.7 5.0 -4.8 4.25 -5.3 3.0 L-5.5 2.35 M1.2 -1.95 L1.3 -2.55 Q-0.75 -0.4 -3.6 1.35 -4.45 1.9 -4.6 2.8 -3.95 4.5 -2.2 4.65 L-3.1 3.35 1.0 2.3 -0.45 1.55 Q1.7 1.45 2.5 -0.5 L-0.3 -0.15 0.3 -0.8 Q1.0 -1.2 1.2 -1.95" fill="#fd8632" fill-rule="evenodd" stroke="none"/>
      <path d="M3.9 -1.65 Q3.0 -0.55 1.5 -0.6 L0.8 -0.8 Q3.65 -2.15 2.4 -5.35 1.2 -1.95 -2.1 -0.3 L-5.4 1.5 -5.5 2.35 -5.55 1.45 -0.9 -1.35 Q1.6 -2.75 2.35 -5.5 L2.7 -5.25 Q3.25 -4.0 2.95 -2.85 2.55 -1.4 1.45 -0.9 L2.45 -1.05 3.9 -1.65 M-3.7 5.0 Q-1.7 6.0 0.05 4.7 L0.65 4.2 Q-1.05 5.35 -2.55 3.7 L-2.05 3.15 Q0.8 3.8 3.2 2.05 L3.8 1.7 Q2.75 3.6 -0.05 3.55 L-2.0 3.4 -2.2 3.9 Q-1.25 5.05 0.15 4.35 L0.75 4.1 Q-0.2 6.45 -2.9 5.5 L-3.7 5.0 M3.8 1.6 L1.5 1.55 3.2 1.5 4.0 1.15 3.8 1.6 M2.85 0.85 Q4.9 -0.4 5.25 -2.9 L5.35 -4.15 4.25 -2.05 5.35 -4.3 Q6.1 -1.25 3.2 0.65 L2.85 0.85" fill="#61170e" fill-rule="evenodd" stroke="none"/>
    </g>
    <g id="sprite3" transform="matrix(1.0, 0.0, 0.0, 1.0, 5.55, 5.5)">
      <use height="11.25" transform="matrix(1.0, 0.0, 0.0, 1.0, -5.55, -5.5)" width="11.05" xlink:href="#shape4"/>
    </g>
    <g id="shape4" transform="matrix(1.0, 0.0, 0.0, 1.0, 5.55, 5.5)">
      <path d="M3.9 -1.65 Q3.0 -0.55 1.5 -0.6 L0.8 -0.8 Q3.65 -2.15 2.4 -5.35 1.2 -1.95 -2.1 -0.3 L-5.4 1.5 -5.5 2.35 -5.55 1.45 -0.9 -1.35 Q1.6 -2.75 2.35 -5.5 L2.7 -5.25 Q3.25 -4.0 2.95 -2.85 2.55 -1.4 1.45 -0.9 L2.45 -1.05 3.9 -1.65 M-3.7 5.0 Q-1.7 6.0 0.05 4.7 L0.65 4.2 Q-1.05 5.35 -2.55 3.7 L-2.05 3.15 Q0.8 3.8 3.2 2.05 L3.8 1.7 Q2.75 3.6 -0.05 3.55 L-2.0 3.4 -2.2 3.9 Q-1.25 5.05 0.15 4.35 L0.75 4.1 Q-0.2 6.45 -2.9 5.5 L-3.7 5.0 M3.8 1.6 L1.5 1.55 3.2 1.5 4.0 1.15 3.8 1.6 M2.85 0.85 Q4.9 -0.4 5.25 -2.9 L5.35 -4.15 4.25 -2.05 5.35 -4.3 Q6.1 -1.25 3.2 0.65 L2.85 0.85" fill="#03102a" fill-rule="evenodd" stroke="none"/>
      <path d="M1.2 -1.95 L1.3 -2.55 Q-0.75 -0.4 -3.6 1.35 -4.45 1.9 -4.6 2.8 -3.95 4.5 -2.2 4.65 L-3.1 3.35 1.0 2.3 -0.45 1.55 Q1.7 1.45 2.5 -0.5 L-0.3 -0.15 0.3 -0.8 Q1.0 -1.2 1.2 -1.95 M-5.5 2.35 L-5.4 1.5 -2.1 -0.3 Q1.2 -1.95 2.4 -5.35 3.65 -2.15 0.8 -0.8 L1.5 -0.6 Q3.0 -0.55 3.9 -1.65 L4.25 -2.05 5.35 -4.15 5.25 -2.9 Q4.9 -0.4 2.85 0.85 L2.65 1.0 2.45 1.05 1.5 1.55 3.8 1.6 3.85 1.6 3.8 1.7 3.2 2.05 Q0.8 3.8 -2.05 3.15 L-2.55 3.7 Q-1.05 5.35 0.65 4.2 L0.05 4.7 Q-1.7 6.0 -3.7 5.0 -4.8 4.25 -5.3 3.0 L-5.5 2.35" fill="#d31fff" fill-rule="evenodd" stroke="none"/>
      <path d="M1.2 -1.95 Q1.0 -1.2 0.3 -0.8 L-0.3 -0.15 2.5 -0.5 Q1.7 1.45 -0.45 1.55 L1.0 2.3 -3.1 3.35 -2.2 4.65 Q-3.95 4.5 -4.6 2.8 -4.45 1.9 -3.6 1.35 -0.75 -0.4 1.3 -2.55 L1.2 -1.95" fill="#8af1ff" fill-rule="evenodd" stroke="none"/>
    </g>
  </defs>
</svg>
